static/logos/trello-glyph-color.svg

<svg width="50" height="50" viewBox="0 0 50 50" fill="none" xmlns="http://www.w3.org/2000/svg">
<path fill-rule="evenodd" clip-rule="evenodd" d="M43.1756 0.201904H6.2158C3.03624 0.201904 0.457504 2.77717 0.453171 5.95671V42.8619C0.447023 44.3944 1.05141 45.8662 2.13278 46.9519C3.21414 48.0375 4.68341 48.6479 6.2158 48.6479H43.1756C44.7065 48.6458 46.1738 48.0346 47.2535 46.9491C48.3331 45.8637 48.9365 44.3931 48.9304 42.8619V5.95671C48.926 2.78019 46.3519 0.206183 43.1756 0.201904ZM21.36 35.0958C21.3581 35.6079 21.1521 36.0983 20.7877 36.4581C20.4233 36.8181 19.9306 37.0181 19.4185 37.0141H11.3415C10.2851 37.0098 9.43103 36.1521 9.43103 35.0958V11.0592C9.43103 10.0028 10.2851 9.14515 11.3415 9.14089H19.4185C20.4761 9.14514 21.3325 10.0015 21.3367 11.0592L21.36 35.0958ZM39.999 24.0598C39.999 24.5727 39.7938 25.0643 39.429 25.4246C39.0642 25.785 38.5704 25.9844 38.0575 25.9783H29.9806C28.9229 25.9739 28.0665 25.1175 28.0623 24.0598V11.0592C28.0665 10.0015 28.9229 9.14514 29.9806 9.14089H38.0575C39.1138 9.14515 39.9681 10.0028 39.9681 11.0592L39.999 24.0598Z" fill="url(#paint0_linear_1_649)"/>
<defs>
<linearGradient id="paint0_linear_1_649" x1="24.715" y1="48.6479" x2="24.715" y2="0.201904" gradientUnits="userSpaceOnUse">
<stop stop-color="#0052CC"/>
<stop offset="1" stop-color="#2684FF"/>
</linearGradient>
</defs>
</svg>

<svg xmlns="http://www.w3.org/2000/svg" width="64" height="64" fill="none" viewBox="0 0 50 50"><path fill="url(#a)" fill-rule="evenodd" d="M43.176.202H6.216A5.763 5.763 0 0 0 .453 5.957v36.905a5.763 5.763 0 0 0 5.763 5.786h36.96a5.763 5.763 0 0 0 5.754-5.786V5.957A5.763 5.763 0 0 0 43.176.202ZM21.36 35.096a1.925 1.925 0 0 1-1.941 1.918H11.34a1.918 1.918 0 0 1-1.91-1.918V11.059c0-1.056.854-1.914 1.91-1.918h8.078a1.926 1.926 0 0 1 1.918 1.918l.023 24.037ZM39.999 24.06a1.918 1.918 0 0 1-1.942 1.918h-8.076a1.926 1.926 0 0 1-1.919-1.918v-13a1.926 1.926 0 0 1 1.919-1.92h8.076a1.918 1.918 0 0 1 1.911 1.92l.031 13Z" clip-rule="evenodd"/><defs><linearGradient id="a" x1="24.715" x2="24.715" y1="48.648" y2=".202" gradientUnits="userSpaceOnUse"><stop stop-color="#0052CC"/><stop offset="1" stop-color="#2684FF"/></linearGradient></defs></svg>
